icons/bookmark-cross.svg

<svg width="24" height="24" viewBox="0 0 24 24" fill="none" xmlns="http://www.w3.org/2000/svg">
<path fill-rule="evenodd" clip-rule="evenodd" d="M13.2196 3.74714C13.5125 3.45424 13.9874 3.45424 14.2803 3.74713L15.9 5.36681L17.5197 3.74713C17.8126 3.45424 18.2874 3.45424 18.5803 3.74714C18.8732 4.04003 18.8732 4.51491 18.5803 4.8078L16.9606 6.42747L18.5803 8.04714C18.8732 8.34003 18.8732 8.8149 18.5803 9.1078C18.2874 9.40069 17.8126 9.40069 17.5197 9.1078L15.9 7.48812L14.2803 9.1078C13.9874 9.40069 13.5125 9.40069 13.2196 9.1078C12.9267 8.8149 12.9267 8.34003 13.2196 8.04714L14.8393 6.42747L13.2196 4.8078C12.9267 4.51491 12.9267 4.04003 13.2196 3.74714ZM7.95001 3.72748C6.4358 3.72748 5.20001 4.96326 5.20001 6.47748V18.6775C5.20001 20.0113 6.58608 20.935 7.82212 20.2287L7.89792 20.1853L10.8969 17.3863C10.9306 17.3745 10.9695 17.3745 11.0031 17.3863L14.0021 20.1853L14.0779 20.2287C15.3139 20.935 16.7 20.0113 16.7 18.6775V12.4775C16.7 12.0633 16.3642 11.7275 15.95 11.7275C15.5358 11.7275 15.2 12.0633 15.2 12.4775V18.6775C15.2 18.8164 15.1359 18.8983 15.0726 18.9368C15.025 18.9658 14.9612 18.9818 14.8805 18.9534L11.917 16.1874L11.866 16.1534C11.3141 15.7855 10.5859 15.7855 10.034 16.1534L9.98304 16.1874L7.01951 18.9534C6.93886 18.9818 6.87502 18.9658 6.82747 18.9368C6.76413 18.8983 6.70001 18.8164 6.70001 18.6775V6.47748C6.70001 5.79169 7.26423 5.22748 7.95001 5.22748H10.95C11.3642 5.22748 11.7 4.89169 11.7 4.47748C11.7 4.06326 11.3642 3.72748 10.95 3.72748H7.95001Z" fill="black"/>
</svg>

<svg xmlns="http://www.w3.org/2000/svg" fill="none" viewBox="0 0 24 24">
  <path fill="#000" fill-rule="evenodd" d="M13.22 3.747a.75.75 0 0 1 1.06 0l1.62 1.62 1.62-1.62a.75.75 0 1 1 1.06 1.06l-1.62 1.62 1.62 1.62a.75.75 0 0 1-1.06 1.06L15.9 7.489l-1.62 1.62a.75.75 0 0 1-1.06-1.06l1.62-1.62-1.62-1.62a.75.75 0 0 1 0-1.06Zm-5.27-.02a2.756 2.756 0 0 0-2.75 2.75v12.2c0 1.334 1.386 2.258 2.622 1.552l.076-.044 2.999-2.799a.164.164 0 0 1 .106 0l3 2.8.075.043c1.236.706 2.622-.218 2.622-1.552v-6.2a.75.75 0 0 0-1.5 0v6.2c0 .14-.064.221-.127.26a.215.215 0 0 1-.193.016l-2.963-2.766-.051-.034a1.658 1.658 0 0 0-1.832 0l-.051.034-2.963 2.766a.215.215 0 0 1-.193-.016c-.063-.039-.127-.12-.127-.26v-12.2c0-.685.564-1.25 1.25-1.25h3a.75.75 0 0 0 0-1.5h-3Z" clip-rule="evenodd"/>
</svg>
